svg/rollback.svg

<?xml version="1.0" encoding="UTF-8"?>
<svg xmlns="http://www.w3.org/2000/svg" xmlns:xlink="http://www.w3.org/1999/xlink" width="32" height="32" viewBox="0 0 32 32">
<path fill-rule="nonzero" fill="rgb(0%, 0%, 0%)" fill-opacity="1" d="M 16 1.28125 C 7.882812 1.28125 1.28125 7.882812 1.28125 16 C 1.28125 24.117188 7.882812 30.71875 16 30.71875 C 18.386719 30.71875 20.644531 30.144531 22.640625 29.132812 C 22.527344 29.058594 22.421875 28.972656 22.324219 28.878906 L 17.125 23.679688 L 22.324219 18.484375 C 22.683594 18.121094 23.171875 17.917969 23.683594 17.917969 C 24.191406 17.917969 24.679688 18.121094 25.039062 18.484375 C 25.789062 19.234375 25.789062 20.449219 25.039062 21.199219 L 24.476562 21.761719 L 27.46875 21.761719 C 28.144531 21.761719 28.789062 21.882812 29.394531 22.09375 C 30.269531 20.179688 30.71875 18.101562 30.71875 16 C 30.71875 7.882812 24.117188 1.28125 16 1.28125 M 16 4.480469 C 16.351562 4.480469 16.640625 4.765625 16.640625 5.121094 L 16.640625 14.199219 C 17.40625 14.46875 17.921875 15.1875 17.921875 16 C 17.921875 17.0625 17.0625 17.921875 16 17.921875 C 15.703125 17.921875 15.429688 17.847656 15.175781 17.726562 L 11.332031 21.574219 C 11.210938 21.695312 11.050781 21.761719 10.878906 21.761719 C 10.707031 21.761719 10.546875 21.695312 10.425781 21.574219 C 10.175781 21.324219 10.175781 20.917969 10.425781 20.667969 L 14.273438 16.824219 C 14.148438 16.566406 14.078125 16.285156 14.078125 16 C 14.078125 15.164062 14.617188 14.460938 15.359375 14.199219 L 15.359375 5.121094 C 15.359375 4.765625 15.648438 4.480469 16 4.480469 M 23.667969 19.195312 C 23.5 19.199219 23.34375 19.265625 23.226562 19.386719 L 18.933594 23.679688 L 23.226562 27.972656 C 23.386719 28.140625 23.625 28.207031 23.851562 28.148438 C 24.074219 28.089844 24.25 27.914062 24.308594 27.691406 C 24.367188 27.464844 24.300781 27.226562 24.132812 27.066406 L 21.386719 24.320312 L 27.46875 24.320312 C 29.277344 24.320312 30.71875 25.75 30.71875 27.519531 C 30.71875 29.289062 29.277344 30.71875 27.46875 30.71875 C 27.238281 30.714844 27.023438 30.839844 26.90625 31.039062 C 26.792969 31.238281 26.789062 31.484375 26.90625 31.683594 C 27.023438 31.882812 27.238281 32.003906 27.46875 32 C 29.957031 32 32 29.992188 32 27.519531 C 32 25.046875 29.957031 23.039062 27.46875 23.039062 L 21.386719 23.039062 L 24.132812 20.292969 C 24.320312 20.109375 24.378906 19.828125 24.277344 19.585938 C 24.171875 19.34375 23.933594 19.1875 23.667969 19.195312 M 23.667969 19.195312 "/>
</svg>

<svg role="img" viewBox="0 0 32 32" height="32" width="32" xmlns="http://www.w3.org/2000/svg"><path d="M16 1.281C7.883 1.281 1.281 7.883 1.281 16c0 8.117 6.602 14.719 14.719 14.719 2.387 0 4.645-.574 6.64-1.586a1.96 1.96 0 0 1-.316-.254l-5.199-5.2 5.2-5.195a1.912 1.912 0 0 1 2.714 0 1.92 1.92 0 0 1 0 2.715l-.562.563h2.992c.676 0 1.32.12 1.926.332A14.653 14.653 0 0 0 30.719 16c0-8.117-6.602-14.719-14.719-14.719m0 3.2a.64.64 0 0 1 .64.64V14.2a1.912 1.912 0 0 1 1.283 1.8A1.926 1.926 0 0 1 16 17.922c-.297 0-.57-.074-.824-.195l-3.844 3.847a.639.639 0 0 1-.906 0 .641.641 0 0 1 0-.906l3.847-3.844a1.896 1.896 0 0 1-.195-.824c0-.836.54-1.54 1.281-1.8V5.12c0-.355.29-.64.641-.64m7.668 14.714a.645.645 0 0 0-.441.192l-4.293 4.293 4.293 4.293a.64.64 0 0 0 1.082-.282.64.64 0 0 0-.176-.625l-2.746-2.746h6.082c1.808 0 3.25 1.43 3.25 3.2 0 1.77-1.442 3.199-3.25 3.199a.644.644 0 0 0-.563.965.64.64 0 0 0 .563.316C29.957 32 32 29.992 32 27.52c0-2.473-2.043-4.48-4.531-4.48h-6.082l2.746-2.747a.644.644 0 0 0 .144-.707.642.642 0 0 0-.609-.39m0 0"/></svg>
